governance/ui/src/components/Socials/github.svg

<svg width="18" height="18" viewBox="0 0 18 18" fill="none" xmlns="http://www.w3.org/2000/svg">
    <path fill-rule="evenodd" clip-rule="evenodd"
        d="M9.00016 0.875C4.51336 0.875 0.875488 4.60522 0.875488 9.20591C0.875488 12.8865 3.20297 16.0097 6.43185 17.1105C6.83815 17.1878 6.98749 16.9298 6.98749 16.7091C6.98749 16.5105 6.97942 15.8538 6.97673 15.1585C4.71517 15.6621 4.23891 14.1763 4.23891 14.1763C3.86893 13.2134 3.33751 12.9568 3.33751 12.9568C2.60025 12.4395 3.39267 12.4505 3.39267 12.4505C4.20796 12.5099 4.63848 13.3086 4.63848 13.3086C5.36363 14.5819 6.53948 14.2136 7.00229 14.0011C7.07494 13.4631 7.28616 13.0948 7.51756 12.8865C5.71343 12.6754 3.81646 11.9608 3.81646 8.76998C3.81646 7.86088 4.13397 7.11732 4.65328 6.53378C4.56852 6.3241 4.29137 5.47707 4.73131 4.32931C4.73131 4.32931 5.41341 4.10583 6.96596 5.18323C7.61443 4.99838 8.30864 4.90595 9.00016 4.90319C9.69033 4.90595 10.3859 4.99838 11.0357 5.18323C12.5869 4.10583 13.2677 4.32931 13.2677 4.32931C13.7103 5.47707 13.4318 6.3241 13.347 6.53378C13.8677 7.11732 14.1825 7.86088 14.1825 8.76998C14.1825 11.9691 12.2815 12.674 10.4733 12.8809C10.7653 13.1389 11.0249 13.6466 11.0249 14.4232C11.0249 15.5379 11.0155 16.4346 11.0155 16.7091C11.0155 16.9312 11.1622 17.1906 11.5738 17.1092C14.8 16.0069 17.1248 12.8851 17.1248 9.20591C17.1248 4.60522 13.487 0.875 9.00016 0.875Z"
        fill="white" />
    <path
        d="M3.95249 12.8354C3.935 12.8768 3.87042 12.8892 3.81257 12.8602C3.75338 12.8326 3.72109 12.7761 3.73992 12.7347C3.75741 12.6919 3.82065 12.6809 3.87984 12.7085C3.93904 12.7374 3.97267 12.794 3.95249 12.8354Z"
        fill="white" />
    <path
        d="M4.28239 13.212C4.24337 13.2492 4.16803 13.2313 4.11691 13.1734C4.06309 13.1154 4.05367 13.0382 4.09269 13.0009C4.13305 12.9637 4.2057 12.9816 4.25951 13.0396C4.31198 13.0975 4.32275 13.1747 4.28239 13.212Z"
        fill="white" />
    <path
        d="M4.60264 13.6924C4.55286 13.7283 4.4708 13.6951 4.42102 13.6207C4.37124 13.5462 4.37124 13.4579 4.42236 13.422C4.47214 13.3861 4.55286 13.4179 4.60399 13.4924C4.65377 13.5669 4.65377 13.6565 4.60264 13.6924Z"
        fill="white" />
    <path
        d="M5.04053 14.1564C4.99613 14.2074 4.90061 14.1936 4.832 14.1246C4.7607 14.057 4.74186 13.9618 4.78626 13.9122C4.832 13.8611 4.92618 13.8763 4.99613 13.9439C5.06609 14.0101 5.08762 14.1067 5.04053 14.1564Z"
        fill="white" />
    <path
        d="M5.64654 14.4252C5.62636 14.49 5.53488 14.5204 5.44339 14.4928C5.35191 14.4638 5.29137 14.388 5.3102 14.3217C5.32904 14.2555 5.42052 14.2252 5.51335 14.2541C5.60618 14.2831 5.66538 14.359 5.64654 14.4252Z"
        fill="white" />
    <path
        d="M6.31116 14.474C6.31385 14.5429 6.23582 14.5995 6.13895 14.6009C6.04208 14.6036 5.96271 14.5471 5.96271 14.4795C5.96271 14.4105 6.03939 14.3539 6.13626 14.3526C6.23178 14.3512 6.31116 14.4064 6.31116 14.474Z"
        fill="white" />
    <path
        d="M6.92954 14.3667C6.94165 14.4343 6.87438 14.5019 6.77752 14.5212C6.68334 14.5392 6.59589 14.4978 6.58378 14.4316C6.57168 14.3626 6.64029 14.2936 6.73447 14.2757C6.83133 14.2577 6.91744 14.2991 6.92954 14.3667Z"
        fill="white" />
</svg>

<svg width="18" height="18" fill="none" viewBox="0 0 18 18" xmlns="http://www.w3.org/2000/svg">
  <path fill="#fff" fill-rule="evenodd" d="M9 .875C4.513.875.875 4.605.875 9.205c0 3.682 2.328 6.805 5.557 7.905.406.078.555-.18.555-.4 0-.2-.008-.856-.01-1.552-2.262.504-2.738-.982-2.738-.982-.37-.963-.901-1.22-.901-1.22-.738-.516.055-.505.055-.505.815.059 1.245.858 1.245.858.726 1.273 1.901.905 2.364.692.073-.538.284-.906.516-1.114-1.805-.212-3.702-.926-3.702-4.117 0-.91.318-1.653.837-2.236-.084-.21-.362-1.057.078-2.205 0 0 .682-.223 2.235.854A7.6 7.6 0 0 1 9 4.903c.69.003 1.386.095 2.036.28 1.55-1.077 2.232-.854 2.232-.854.442 1.148.164 1.995.079 2.205.52.583.835 1.327.835 2.236 0 3.2-1.9 3.904-3.709 4.11.292.259.552.767.552 1.543 0 1.115-.01 2.012-.01 2.286 0 .222.147.482.559.4 3.226-1.102 5.55-4.224 5.55-7.903 0-4.6-3.637-8.331-8.124-8.331" clip-rule="evenodd"/>
  <path fill="#fff" d="M3.952 12.835c-.017.042-.082.054-.14.025-.059-.027-.09-.084-.072-.125.017-.043.08-.054.14-.026.059.028.093.085.072.126m.33.377c-.039.037-.114.02-.165-.039-.054-.058-.063-.135-.024-.172.04-.037.113-.02.167.039.052.058.063.135.022.172m.321.48c-.05.036-.132.003-.182-.071-.05-.075-.05-.163.001-.199.05-.036.13-.004.182.07.05.075.05.164-.001.2m.437.464c-.044.051-.14.038-.208-.031-.071-.068-.09-.163-.046-.213.046-.05.14-.036.21.032.07.066.092.163.045.212m.606.269c-.02.065-.112.095-.204.068-.091-.03-.152-.105-.133-.171s.11-.097.203-.068c.093.03.152.105.134.171m.664.049c.003.069-.075.126-.172.127-.097.003-.176-.054-.176-.122s.076-.125.173-.126.175.053.175.121m.619-.107c.012.067-.056.135-.152.154-.095.018-.182-.023-.194-.09-.012-.068.056-.137.15-.155.097-.018.183.023.196.09"/>
</svg>
